!!!!SEGMENT: pl-gd--ee-1638--003-017_marenzio-luca--madrigali-a-quatro-voci-come-doglia.krn
!!!cenid: 15xx:991
!!!COM: Marenzio, Luca
!!!COM-rismID: pe30003955
!!!CDT: ~1553-1599/08/22
!!!CNT: Italian
!!!GTL: Madrigali a quatro voci
!!!OTL: Come doglia
!!!OMV: 017
!!!PDT: 1587
!!!AGN:
!!!SMS-siglum: PL-GD
!!!SMS-shelfmark: Ee 1638
!!!SMS-shelfwork: 003-017 G
!!!SMS-variant:
!!!SMS-altvar:
!!!NIFC-rismSourceID: 1001202747
!!!NIFC-rismChildID: 990039322
!!!NIFC-islandoraID: pl-gd:57883
!!!URL-pdf-islandora: https://repozytorium.nifc.pl/islandora/object/pl-gd%3A57883/datastream/PDF/view
!!!URL-scan: https://polish.musicsources.pl/pl/lokalizacje/galeria/klocki-introligatorskie/655 @EN{Scan on Polish Music Sources Website} @PL{Skany w portalu Dziedzictwo Muzyki Polskiej w otwartym dostępie}
!!!ONB-nifc: UWAGA: zbiór na stronach: Canto: s. 637-653, Alto: s. do 486-501, Tenore: s. do 334-349, Bassus: s. do 182-197. Uwaga: utwory podzielone wg tytułów w spisach treści dostępnych na końcu każdej księgi głosowej.
!!!AIN: 1 alto 1 bass 1 soprn 1 tenor
!!!key: d
**kern	**text	**mod-text	**kern	**text	**mod-text	**kern	**text	**mod-text	**kern	**text	**mod-text
*part4	*part4	*part4	*part3	*part3	*part3	*part2	*part2	*part2	*part1	*part1	*part1
*staff4	*staff4	*staff4	*staff3	*staff3	*staff3	*staff2	*staff2	*staff2	*staff1	*staff1	*staff1
*I"BASSO	*	*	*I"TENORE	*	*	*I"ALTO	*	*	*I"CANTO	*	*
*mI"Basso	*	*	*mI"Tenore	*	*	*mI"Alto	*	*	*mI"Soprano	*	*
*I'B	*	*	*I'T	*	*	*I'A	*	*	*I'S	*	*
*ICvox	*	*	*ICvox	*	*	*ICvox	*	*	*ICvox	*	*
*Ibass	*	*	*Itenor	*	*	*Ialto	*	*	*Isoprn	*	*
*clefF4	*	*	*clefC4	*	*	*clefC3	*	*	*clefC1	*	*
*mclefF4	*	*	*mclefGv2	*	*	*mclefG2	*	*	*mclefG2	*	*
*k[]	*	*	*k[]	*	*	*k[]	*	*	*k[]	*	*
*d:	*	*	*d:	*	*	*d:	*	*	*d:	*	*
*M2/1	*	*	*M2/1	*	*	*M2/1	*	*	*M2/1	*	*
*met(C)	*	*	*met(C)	*	*	*met(C)	*	*	*met(C)	*	*
=1-	=1-	=1-	=1-	=1-	=1-	=1-	=1-	=1-	=1-	=1-	=1-
!LO:TX:a:t=Seconda parte.:mod=	!	!	!LO:TX:a:t=Seconda parte.:mod=	!	!	!LO:TX:a:t=Seconda parte.:mod=	!	!	!LO:TX:a:t=Seconda parte.:mod=	!	!
*xywh-pl-gd--ee1638-8o--0190:4677,562,3413,801	*	*	*xywh-pl-gd--ee1638-8o--0342:4700,546,3379,814	*	*	*xywh-pl-gd--ee1638-8o--0494:4597,539,3238,799	*	*	*xywh-pl-gd--ee1638-8o--0646:4655,524,3310,802	*	*
1.A	CO-	Co-	1r	.	.	00r	.	.	00r	.	.
.	.	.	1.A	CO-	Co-	.	.	.	.	.	.
2G\	-me	-me	.	.	.	.	.	.	.	.	.
=2-	=2-	=2-	=2-	=2-	=2-	=2-	=2-	=2-	=2-	=2-	=2-
1F	dog-	dog-	.	.	.	.	.	.	.	.	.
.	.	.	2B\	-me	-me	.	.	.	.	.	.
1E	-lia	-lia	1c#X	dog-	dog-	.	.	.	.	.	.
=3-	=3-	=3-	=3-	=3-	=3-	=3-	=3-	=3-	=3-	=3-	=3-
0r	.	.	1d	-lia	-lia	1r	.	.	1.a	CO-	Co-
.	.	.	1r	.	.	1.A	CO-	Co-	.	.	.
.	.	.	.	.	.	.	.	.	2g/	-me	-me
=4-	=4-	=4-	=4-	=4-	=4-	=4-	=4-	=4-	=4-	=4-	=4-
1.A	Co-	Co-	1r	.	.	.	.	.	1f	dog-	dog-
.	.	.	.	.	.	2B/	-me	-me	.	.	.
*	*	*	*	*ij	*	*	*	*	*	*	*
.	.	.	1.A	CO-	Co-	1c#X	dog-	dog-	1e	-lia	-lia
2G\	-me	-me	.	.	.	.	.	.	.	.	.
=5-	=5-	=5-	=5-	=5-	=5-	=5-	=5-	=5-	=5-	=5-	=5-
1F	dog-	dog-	.	.	.	1d	-lia	-lia	0r	.	.
.	.	.	2B\	-me	-me	.	.	.	.	.	.
1E	-lia	-lia	1c#X	dog-	dog-	2r	.	.	.	.	.
.	.	.	.	.	.	2e\	fin	fin	.	.	.
=6-	=6-	=6-	=6-	=6-	=6-	=6-	=6-	=6-	=6-	=6-	=6-
2r	.	.	1d	-lia	-lia	1.f	qui	qui	2r	.	.
2D/	fin	fin	.	.	.	.	.	.	2a\	fin	fin
1.A	qui	qui	1r	.	.	.	.	.	1.cc	qui	qui
.	.	.	.	.	.	2e\	fu	fu	.	.	.
*	*	*	*	*Xij	*	*	*	*	*	*	*
=7-	=7-	=7-	=7-	=7-	=7-	=7-	=7-	=7-	=7-	=7-	=7-
.	.	.	2r	.	.	2cny/	me-	me-	.	.	.
2G\	fu	fu	2B\	fin	fin	2d\	-co &	-co e	2b\	fu	fu
2E\	me-	me-	1.cny	qui	qui	1.e	pian-	pian-	2g/	me-	me-
2F\	-co &	-co e	.	.	.	.	.	.	2a\	-co &	-co e
=8-	=8-	=8-	=8-	=8-	=8-	=8-	=8-	=8-	=8-	=8-	=8-
2.G\	pian-	pian-	.	.	.	.	.	.	1.b	pian-	pian-
.	.	.	2B\	fu	fu	1d	.	.	.	.	.
4F\	.	.	.	.	.	.	.	.	.	.	.
1E	.	.	2G/	me-	me-	.	.	.	.	.	.
.	.	.	2A/	-co &	-co e	2c#X/	.	.	4a\	.	.
.	.	.	.	.	.	.	.	.	4g/	.	.
!LO:MO:mod=*null:null	!	!	!	!	!	!	!	!	!	!	!
*custos:D	*	*	*	*	*	*	*	*	*	*	*
!LO:LB:g=original	!	!	!	!	!	!	!	!	!	!	!
=9-	=9-	=9-	=9-	=9-	=9-	=9-	=9-	=9-	=9-	=9-	=9-
*xywh-pl-gd--ee1638-8o--0190:4697,1197,3351,718	*	*	*	*	*	*	*	*	*	*	*
0D	-to	-to,	1B	pian-	pian-	0d	-to	-to,	2f#X/	.	.
.	.	.	.	.	.	.	.	.	1g	.	.
!	!	!	!LO:MO:mod=*null:null	!	!	!	!	!	!	!	!
*	*	*	*custos:A	*	*	*	*	*	*	*	*
!	!	!	!LO:LB:g=original	!	!	!	!	!	!	!	!
*	*	*	*xywh-pl-gd--ee1638-8o--0342:4628,1206,3400,669	*	*	*	*	*	*	*	*
.	.	.	1A	-to	-to,	.	.	.	.	.	.
.	.	.	.	.	.	.	.	.	2f#X/	-to	-to,
!	!	!	!	!	!	!LO:MO:mod=*null:null	!	!	!LO:MO:mod=*null:null	!	!
*	*	*	*	*	*	*custos:d	*	*	*custos:g	*	*
!	!	!	!	!	!	!LO:LB:g=original	!	!	!LO:LB:g=original	!	!
=10-	=10-	=10-	=10-	=10-	=10-	=10-	=10-	=10-	=10-	=10-	=10-
*	*	*	*	*	*	*xywh-pl-gd--ee1638-8o--0494:4524,1204,3373,685	*	*	*xywh-pl-gd--ee1638-8o--0646:4635,1223,3403,627	*	*
4r	.	.	4r	.	.	4r	.	.	4r	.	.
4G\	Se	Se	4B\	Se	Se	4d\	Se	Se	4g/	Se	Se
4G\	non	non	4B\	non	non	4d\	non	non	4g/	non	non
4.C/	quan-	quan-	4.c\	quan-	quan-	4.e\	quan-	quan-	4.g/	quan-	quan-
8C/	-do	-do	8c\	-do	-do	8e\	-do	-do	8g/	-do	-do
4AA/	di-	di-	4c\	di-	di-	4e\	di-	di-	4a\	di-	di-
4D/	-let-	-let-	4A/	-let-	-let-	4d\	-let-	-let-	4fny/	-let-	-let-
4C/	-to A-	-to A-	4c\	-to A-	-to A-	4e\	-to A-	-to A-	4g/	-to A-	-to A-
=11-	=11-	=11-	=11-	=11-	=11-	=11-	=11-	=11-	=11-	=11-	=11-
4F\	-mor	-mor	4c\	-mor	-mor	4f\	-mor	-mor	4a\	-mor	-mor
4A\	mi	mi	4c\	mi	mi	4cny/	mi	mi	4e/	mi	mi
2G\	por-	por-	2B\	por-	por-	2d\	por-	por-	2g/	por-	por-
4G\	-ſe	-ſe,	4B\	-ſe	-ſe,	4d\	-ſe	-ſe,	1g	-ſe	-ſe,
4C/	Et	E	4c\	Et	E	4e\	Et	E	.	.	.
2G\	ſol	ſol	4.B\	ſol	ſol	4.d\	ſol	ſol	.	.	.
.	.	.	8A/	fu	fu	8c/	fu	fu	.	.	.
=12-	=12-	=12-	=12-	=12-	=12-	=12-	=12-	=12-	=12-	=12-	=12-
4r	.	.	4G/	dol-	dol-	4B/	dol-	dol-	4r	.	.
4C/	Et	e	4c\	-ce a-	-ce a-	4g\	-ce a-	-ce a-	4ee\	Et	E
2G\	ſol	ſol	2B\	-man-	-man-	2g\	-man-	-man-	4.dd\	ſol	ſol
.	.	.	.	.	.	.	.	.	8cc\	fu	fu
4r	.	.	4e\	do	do	4g\	do	do	4b\	dol-	dol-
4C/	Et	e	4e\	Et	e	4g\	Et	e	4cc\	-ce a-	-ce a-
4.G\	ſol	ſol	4.d\	ſol	ſol	4.g\	ſol	ſol	4b\	-man-	-man-
.	.	.	.	.	.	.	.	.	4e/	-do	-do
8A\	fu	fu	8c\	fu	fu	8e\	fu	fu	.	.	.
!LO:MO:mod=*null:null	!	!	!LO:MO:mod=*null:null	!	!	!LO:MO:mod=*null:null	!	!	!	!	!
*custos:E	*	*	*custos:B	*	*	*custos:g	*	*	*	*	*
!LO:LB:g=original	!	!	!LO:LB:g=original	!	!	!LO:LB:g=original	!	!	!	!	!
=13-	=13-	=13-	=13-	=13-	=13-	=13-	=13-	=13-	=13-	=13-	=13-
*xywh-pl-gd--ee1638-8o--0190:4666,1811,3382,593	*	*	*xywh-pl-gd--ee1638-8o--0342:4669,1814,3472,649	*	*	*xywh-pl-gd--ee1638-8o--0494:4534,1702,3373,768	*	*	*	*	*
4.E\	dol-	dol-	4B\	dol-	dol-	4g\	dol-	dol-	4r	.	.
.	.	.	4c\	-ce a-	-ce a-	2g\	-ce a-	-ce a-	4ee\	Et	e
8F\	-ce a-	-ce a-	.	.	.	.	.	.	.	.	.
2.G\	-man-	-man-	2.B\	-ma(n)-	-man-	.	.	.	4.dd\	ſol	ſol
.	.	.	.	.	.	2d\	-man-	-man-	.	.	.
.	.	.	.	.	.	.	.	.	8cc\	fu	fu
!	!	!	!	!	!	!	!	!	!LO:MO:mod=*null:null	!	!
*	*	*	*	*	*	*	*	*	*custos:b	*	*
!	!	!	!	!	!	!	!	!	!LO:LB:g=original	!	!
*	*	*	*	*	*	*	*	*	*xywh-pl-gd--ee1638-8o--0646:4614,1717,3331,658	*	*
.	.	.	.	.	.	.	.	.	4b\	dol-	dol-
4C/	-do il	-do il	4c\	-do il	-do il	2g\	-do il	-do il	4ee\	-ce a-	-ce a-
2D/	vi-	vi-	4B\	vi-	vi-	.	.	.	4.dd\	-man-	-man-
.	.	.	4A/	-uer	-ver	2f\	vi-	vi-	.	.	.
.	.	.	.	.	.	.	.	.	8cc\	-do il	-do il
=14-	=14-	=14-	=14-	=14-	=14-	=14-	=14-	=14-	=14-	=14-	=14-
2D/	-uer	-ver	4.d\	mi-	mi-	.	.	.	4b\	vi-	vi-
.	.	.	.	.	.	4f\	-uer	-ver	4a\	-uer	-ver
.	.	.	8c\	.	.	.	.	.	.	.	.
2E\	mi-	mi-	2B\	.	.	2e\	mi-	mi-	2g#X/	mi-	mi-
1AA	-o	-o	1A	-o	-o,	1e	-o	-o,	1a	-o	-o,
=15-	=15-	=15-	=15-	=15-	=15-	=15-	=15-	=15-	=15-	=15-	=15-
00r	.	.	2r	.	.	2r	.	.	1e	Co-	Co-
.	.	.	1A	Co-	Co-	1c	Co-	Co-	.	.	.
.	.	.	.	.	.	.	.	.	1f	-ſi	-ſi
.	.	.	1B-X\	-ſi	-ſi	1d\	-ſi	-ſi	.	.	.
=16-	=16-	=16-	=16-	=16-	=16-	=16-	=16-	=16-	=16-	=16-	=16-
.	.	.	.	.	.	.	.	.	1gny	fia	fia
.	.	.	2c\	fia	fia	2e\	fia	fia	.	.	.
.	.	.	1F	ſem-	ſem-	1f	ſem-	ſem-	1a	ſem-	ſem-
=17-	=17-	=17-	=17-	=17-	=17-	=17-	=17-	=17-	=17-	=17-	=17-
1C	Co-	Co-	4c\	-pre	-pre	2e\	-pre	-pre:	2g/	-pre &	-pre: e
.	.	.	4G/	Co-	Co-	.	.	.	.	.	.
.	.	.	1A	-ſi	-ſi	4r	.	.	4.cc\	lo-	lo-
.	.	.	.	.	.	4c/	& lo-	e lo-	.	.	.
.	.	.	.	.	.	.	.	.	8b\	-da hau-	-da a-
1D	-ſi	-ſi	.	.	.	4.f\	-da hau-	-da a-	4a\	-ro(n)-	-ron-
.	.	.	.	.	.	.	.	.	4a\	-ne et	-ne et
.	.	.	.	.	.	8e\	-ro(n)-	-ron-	.	.	.
.	.	.	1Bny\	fia	fia	4d\	-ne et	-ne et	2dd\	ua(n)-	van-
.	.	.	.	.	.	4d\	ua(n)-	van-	.	.	.
=18-	=18-	=18-	=18-	=18-	=18-	=18-	=18-	=18-	=18-	=18-	=18-
1E	fia	fia	.	.	.	2g\	-to	-to,	4b\	-to &	-to, e
.	.	.	.	.	.	.	.	.	4b\	lo-	lo-
*	*	*	*	*	*	*	*ij	*	*	*	*
.	.	.	1c	ſem-	ſem-	4e\	& lo	e lo	4.ee\	-da	-da
.	.	.	.	.	.	4e\	da	da	.	.	.
.	.	.	.	.	.	.	.	.	8dd\	hau-	a-
!	!	!	!	!	!	!	!	!	!LO:MO:mod=*null:null	!	!
*	*	*	*	*	*	*	*	*	*custos:cc	*	*
!	!	!	!	!	!	!	!	!	!LO:LB:g=original	!	!
*	*	*	*	*	*	*	*	*	*xywh-pl-gd--ee1638-8o--0646:4604,2313,3341,586	*	*
1F	ſem-	ſem-	.	.	.	4.a\	hau-	a-	4cc\	-ro(n)-	-ron-
.	.	.	.	.	.	.	.	.	4cc\	-ne &	-ne e
.	.	.	.	.	.	8g\	-ro(n)-	-ron-	.	.	.
.	.	.	2A/	-pre	-pre:	4f\	-ne &	-ne e	2dd\	uan-	van-
.	.	.	.	.	.	4f\	uan-	van-	.	.	.
!	!	!	!	!	!	!LO:MO:mod=*null:null	!	!	!	!	!
*	*	*	*	*	*	*custos:g	*	*	*	*	*
!	!	!	!	!	!	!LO:LB:g=original	!	!	!	!	!
=19-	=19-	=19-	=19-	=19-	=19-	=19-	=19-	=19-	=19-	=19-	=19-
*	*	*	*	*	*	*xywh-pl-gd--ee1638-8o--0494:4503,2262,3394,726	*	*	*	*	*
2E\	-pre	-pre:	4r	.	.	2g\	-to	-to,	2ee\	-to	-to,
.	.	.	4G/	&	e	.	.	.	.	.	.
!	!	!	!LO:MO:mod=*null:null	!	!	!	!	!	!	!	!
*	*	*	*custos:c	*	*	*	*	*	*	*	*
!	!	!	!LO:LB:g=original	!	!	!	!	!	!	!	!
*	*	*	*xywh-pl-gd--ee1638-8o--0342:4700,2318,3379,638	*	*	*	*	*	*	*	*
4r	.	.	4.c\	lo-	lo-	4e\	.	.	2g/	Co-	Co-
*	*	*	*	*	*	*	*Xij	*	*	*	*
4C/	& lo-	e lo-	.	.	.	4e\	Co-	Co-	.	.	.
.	.	.	8B\	-da hau-	-da a-	.	.	.	.	.	.
4.F\	-da	-da	4A/	-ro(n)-	-ron-	1f	-ſi	-ſi	1a	-ſi	-ſi
.	.	.	4A/	-ne et	-ne e	.	.	.	.	.	.
8E\	hau-	a-	.	.	.	.	.	.	.	.	.
4D/	-ron-	-ron-	2d\	ua(n)-	van-	.	.	.	.	.	.
4D/	-ne	-ne	.	.	.	.	.	.	.	.	.
=20-	=20-	=20-	=20-	=20-	=20-	=20-	=20-	=20-	=20-	=20-	=20-
2G\	et	e	4B\	-to	-to,	1g	fia	fia	1b	fia	fia
.	.	.	4B\	lo-	lo-	.	.	.	.	.	.
4E\	uan-	van-	4.e\	-da	-da	.	.	.	.	.	.
4E\	-to &	-to, e	.	.	.	.	.	.	.	.	.
.	.	.	8d\	hau-	a-	.	.	.	.	.	.
!LO:MO:mod=*null:null	!	!	!	!	!	!	!	!	!	!	!
*custos:A	*	*	*	*	*	*	*	*	*	*	*
!LO:LB:g=original	!	!	!	!	!	!	!	!	!	!	!
*xywh-pl-gd--ee1638-8o--0190:4739,2352,3289,593	*	*	*	*	*	*	*	*	*	*	*
4.A\	lo-	lo-	4.c\	-ron`	-ron`	1a	ſem-	ſem-	1cc	ſem-	ſem-
8G\	-da hau-	-da a-	8B\	&	e	.	.	.	.	.	.
4F\	-ro(n)-	-ron-	2A/	uan-	van-	.	.	.	.	.	.
4F\	-ne &	-ne e	.	.	.	.	.	.	.	.	.
=21-	=21-	=21-	=21-	=21-	=21-	=21-	=21-	=21-	=21-	=21-	=21-
2G\	uan-	van-	2d\	-to	-to	2g\	-pre	-pre	2b\	-pre &	-pre e
2C/	-to	-to,	4r	.	.	4r	.	.	4.ee\	lo-	lo-
*	*	*	*	*ij	*	*	*	*	*	*	*
.	.	.	4c\	lo-	lo-	4g\	& lo-	e lo-	.	.	.
.	.	.	.	.	.	.	.	.	8dd\	-da hau-	-da a-
1r	.	.	4.f\	-da	-da	4.a\	-da	-da	4cc\	-ro(n)-	-ron-
.	.	.	.	.	.	.	.	.	4cc\	-ne &	-ne e
.	.	.	8e\	hau-	a-	8g\	hau-	a-	.	.	.
.	.	.	4d\	-ron`	-ron`	2f#X\	-ron`&	-ron`e	2.dd\	uan-	van-
.	.	.	4d\	&	e	.	.	.	.	.	.
=22-	=22-	=22-	=22-	=22-	=22-	=22-	=22-	=22-	=22-	=22-	=22-
1r	.	.	1e	uan-	van-	4g#X\	uan-	van-	.	.	.
.	.	.	.	.	.	2a\	.	.	4cc\	.	.
.	.	.	.	.	.	.	.	.	2b\	.	.
.	.	.	.	.	.	4g#X\	.	.	.	.	.
2r	.	.	2A/	-to	-to,	0a	-to	-to,	2a\	-to	-to,
*	*	*	*	*Xij	*	*	*	*	*	*	*
2A\	Che	Che	2c\	Che	Che	.	.	.	2e/	Che	Che
=23-	=23-	=23-	=23-	=23-	=23-	=23-	=23-	=23-	=23-	=23-	=23-
2F\	ſcri-	ſcri-	2c\	ſcri-	ſcri-	.	.	.	2cc\	ſcri-	ſcri-
2A\	-ue-	-ve-	2c\	-ue-	-ve-	.	.	.	2cc\	-ue-	-ve-
!	!	!	!LO:MO:mod=*null:null	!	!	!	!	!	!	!	!
*	*	*	*custos:d	*	*	*	*	*	*	*	*
!	!	!	!LO:LB:g=original	!	!	!	!	!	!	!	!
*	*	*	*xywh-pl-gd--ee1638-8o--0342:4659,2813,3369,659	*	*	*	*	*	*	*	*
1G	-raſ-	-raſ-	2d\	-raſ-	-raſ-	1r	.	.	1b-X	-raſ-	-raſ-
.	.	.	2e\	.	.	.	.	.	.	.	.
=24-	=24-	=24-	=24-	=24-	=24-	=24-	=24-	=24-	=24-	=24-	=24-
1F	-ſi al	-ſi al	1f	-ſi	-ſi	2r	.	.	1a	-si	-si
.	.	.	.	.	.	2c/	Che	Che	.	.	.
!	!	!	!	!	!	!	!	!	!LO:MO:mod=*null:null	!	!
*	*	*	*	*	*	*	*	*	*custos:g	*	*
!	!	!	!	!	!	!	!	!	!LO:LB:g=original	!	!
*	*	*	*	*	*	*	*	*	*xywh-pl-gd--ee1638-8o--0646:4645,2837,3362,688	*	*
2E\	mio	mio	1r	.	.	2c/	ſcri-	ſcri-	2r	.	.
2C/	ſe-	ſe-	.	.	.	2c/	-ue-	-ve-	2g/	Che	Che
=25-	=25-	=25-	=25-	=25-	=25-	=25-	=25-	=25-	=25-	=25-	=25-
2G\	-pol-	-pol-	0r	.	.	2d\	-raſ-	-raſ-	2g/	ſcri-	ſcri-
2E\	-chro	-cro	.	.	.	2e\	.	.	2g/	-ue-	-ve-
1D	for-	for-	.	.	.	1fny	-ſi	-ſi	2a\	-raſ-	-raſ-
.	.	.	.	.	.	.	.	.	2bny\	.	.
=26-	=26-	=26-	=26-	=26-	=26-	=26-	=26-	=26-	=26-	=26-	=26-
4C/	-ſe	-ſe:	4r	.	.	0r	.	.	2cc\	-ſi	-ſi
2c\	Que-	Que-	2e\	Que-	Que-	.	.	.	.	.	.
.	.	.	.	.	.	.	.	.	2r	.	.
4B\	-ſti	-ſti	4d\	-ſti	-ſti	.	.	.	.	.	.
2A\	ſer-	ſer-	2c\	ſer-	ſer-	.	.	.	1r	.	.
4G\	-uo	-vo	4B\	-uo	-vo	.	.	.	.	.	.
4F\	d`A-	d`A-	4A/	d`A-	d`A-	.	.	.	.	.	.
!LO:MO:mod=*null:null	!	!	!	!	!	!LO:MO:mod=*null:null	!	!	!	!	!
*custos:E	*	*	*	*	*	*custos:g	*	*	*	*	*
!LO:LB:g=original	!	!	!	!	!	!LO:LB:g=original	!	!	!	!	!
=27-	=27-	=27-	=27-	=27-	=27-	=27-	=27-	=27-	=27-	=27-	=27-
*xywh-pl-gd--ee1638-8o--0190:4635,2925,3330,572	*	*	*	*	*	*xywh-pl-gd--ee1638-8o--0494:4534,2812,3581,685	*	*	*	*	*
0E	-mor	-mor	4.G/	-mor	-mor	4r	.	.	4r	.	.
.	.	.	.	.	.	2gny\	Que-	Que-	2ee\	Que-	Que-
.	.	.	8A/	.	.	.	.	.	.	.	.
.	.	.	2B\	.	.	.	.	.	.	.	.
.	.	.	.	.	.	4f\	-ſti	-ſti	4dd\	-ſti	-ſti
.	.	.	2r	.	.	2e\	ſer-	ſer-	2cc\	ſer-	ſer-
.	.	.	1B\	viſ-	viſ-	4d\	-uo	-vo	4b\	-uo	-vo
.	.	.	.	.	.	4c/	d`A-	d`A-	4a\	d`A-	d`A-
=28-	=28-	=28-	=28-	=28-	=28-	=28-	=28-	=28-	=28-	=28-	=28-
1E	viſ-	viſ-	.	.	.	2B/	-mor	-mor	2g#X/	-mor	-mor
.	.	.	2B\	-ſe &	-ſe e	1e	viſ-	viſ-	2g#/	viſ-	viſ-
2C#X/	-ſe &	-ſe e	1A	mo-	mo-	.	.	.	2a\	-ſe &	-ſe e
2D/	mo-	mo-	.	.	.	1d/	-ſe &	-ſe e	2f/	mo-	mo-
=29-	=29-	=29-	=29-	=29-	=29-	=29-	=29-	=29-	=29-	=29-	=29-
0E	-ri-	-rí-	2G#X/	-ri-	-rí-	.	.	.	0e	-ri-	-rí-
.	.	.	2.A/	.	.	2c/	-mo-	-mo-	.	.	.
.	.	.	.	.	.	1B	-ri-	-rí-	.	.	.
.	.	.	8G#X/	.	.	.	.	.	.	.	.
.	.	.	8F#X/	.	.	.	.	.	.	.	.
.	.	.	2G#X/	.	.	.	.	.	.	.	.
!	!	!	!LO:MO:mod=*null:null	!	!	!	!	!	!	!	!
*	*	*	*custos:A	*	*	*	*	*	*	*	*
!	!	!	!LO:LB:g=original	!	!	!	!	!	!	!	!
=30-	=30-	=30-	=30-	=30-	=30-	=30-	=30-	=30-	=30-	=30-	=30-
*	*	*	*xywh-pl-gd--ee1638-8o--0342:4659,3421,3482,628	*	*	*	*	*	*	*	*
2AA/	-o	-o.	2A/	-o	-o.	1A	-o	-o.	2e/	-o	-o.
2A\	Che	Che	2c\	Che	Che	.	.	.	4r	.	.
.	.	.	.	.	.	.	.	.	4e/	Che	Che
2F\	ſcri-	ſcri-	2c\	ſcri-	ſcri-	1r	.	.	2cc\	ſcri-	ſcri-
2A\	-ue-	-ve-	2c\	-ue-	-ve-	.	.	.	2cc\	-ue-	-ve-
!	!	!	!	!	!	!	!	!	!LO:MO:mod=*null:null	!	!
*	*	*	*	*	*	*	*	*	*custos:b	*	*
!	!	!	!	!	!	!	!	!	!LO:LB:g=original	!	!
=31-	=31-	=31-	=31-	=31-	=31-	=31-	=31-	=31-	=31-	=31-	=31-
*	*	*	*	*	*	*	*	*	*xywh-pl-gd--ee1638-8o--0646:4645,3393,3290,575	*	*
1G	-raſ-	-raſ-	2d\	-raſ-	-raſ-	1r	.	.	1b-X	-raſ-	-raſ-
.	.	.	2e\	.	.	.	.	.	.	.	.
1F	ſi al	ſi al	1f	ſi	ſi	2r	.	.	1a	-si	-si
.	.	.	.	.	.	2c/	Che	Che	.	.	.
=32-	=32-	=32-	=32-	=32-	=32-	=32-	=32-	=32-	=32-	=32-	=32-
2E\	mio	mio	00r	.	.	2c/	ſcri-	ſcri-	2r	.	.
2Cny/	ſe-	ſe-	.	.	.	2c/	-ue-	-ve-	2gny/	Che	Che
2G\	-pol-	-pol-	.	.	.	2d\	-raſ-	-raſ-	2g/	ſcri-	ſcri-
2E\	-chro	-cro	.	.	.	2e\	.	.	2g/	-ue-	-ve-
=33-	=33-	=33-	=33-	=33-	=33-	=33-	=33-	=33-	=33-	=33-	=33-
1D	for-	for-	.	.	.	2f\	-ſi	-ſi	2a\	-raſ-	-raſ-
.	.	.	.	.	.	4r	.	.	2bny\	.	.
.	.	.	.	.	.	4f\	al	al	.	.	.
1C	-ſe	-ſe:	.	.	.	2e\	mio	mio	2cc\	-si	-si
.	.	.	.	.	.	2c/	ſe-	ſe-	4r	.	.
.	.	.	.	.	.	.	.	.	4cc\	al	al
=34-	=34-	=34-	=34-	=34-	=34-	=34-	=34-	=34-	=34-	=34-	=34-
00r	.	.	2r	.	.	2g\	-pol-	-pol-	2b\	mio	mio
.	.	.	4r	.	.	2e\	-chro	-cro	2g/	ſe-	ſe-
.	.	.	4c\	al	al	.	.	.	.	.	.
!	!	!	!	!	!	!LO:MO:mod=*null:null	!	!	!	!	!
*	*	*	*	*	*	*custos:d	*	*	*	*	*
!	!	!	!	!	!	!LO:LB:g=original	!	!	!	!	!
*	*	*	*	*	*	*xywh-pl-gd--ee1638-8o--0494:4586,3373,3446,685	*	*	*	*	*
.	.	.	2B\	mio	mio	2.d\	for-	for-	2.dd\	-pol-	-pol-
.	.	.	2Gny/	ſe-	ſe-	.	.	.	.	.	.
.	.	.	.	.	.	4e\	.	.	8cc\	.	.
.	.	.	.	.	.	.	.	.	8b\	.	.
=35-	=35-	=35-	=35-	=35-	=35-	=35-	=35-	=35-	=35-	=35-	=35-
.	.	.	2d\	-pol-	-pol-	4f\	.	.	2a\	.	.
.	.	.	.	.	.	4d\	.	.	.	.	.
.	.	.	2B\	-chro	-cro	2.g\	.	.	2b\	-chro	-cro
.	.	.	1A	for-	for-	.	.	.	1cc	for-	for-
.	.	.	.	.	.	8f\	.	.	.	.	.
.	.	.	.	.	.	8e\	.	.	.	.	.
.	.	.	.	.	.	2f#X\	.	.	.	.	.
=36-	=36-	=36-	=36-	=36-	=36-	=36-	=36-	=36-	=36-	=36-	=36-
1r	.	.	1G	-ſe	-ſe:	1g	-ſe	-ſe:	1b	-ſe	-ſe:
4r	.	.	4r	.	.	4r	.	.	4r	.	.
2C/	Queſ-	Queſ-	2c\	Queſ-	Queſ-	2g\	Queſ-	Queſ-	2ee\	Queſ-	Queſ-
4GG/	-ti	-ti	4B\	-ti	-ti	4g\	-ti	-ti	4dd\	-ti	-ti
=37-	=37-	=37-	=37-	=37-	=37-	=37-	=37-	=37-	=37-	=37-	=37-
2AA/	ſer-	ſer-	2A/	ſer-	ſer-	2e\	ſer-	ſer-	2cc\	ſer-	ſer-
4E\	-uo	-vo	4G#X/	-uo	-vo	4e\	-uo	-vo	4b\	-uo	-vo
!	!	!	!	!	!	!	!	!	!LO:MO:mod=*null:null	!	!
*	*	*	*	*	*	*	*	*	*custos:a	*	*
!	!	!	!	!	!	!	!	!	!LO:LB:g=original	!	!
*	*	*	*	*	*	*	*	*	*xywh-pl-gd--ee1638-8o--0646:4583,3917,3496,647	*	*
4F\	d`A-	d`A-	4A/	d`A-	d`A-	4c/	d`A-	d`A-	4a\	d'A-	d'A-
!LO:MO:mod=*null:null	!	!	!	!	!	!	!	!	!	!	!
*custos:E	*	*	*	*	*	*	*	*	*	*	*
!LO:LB:g=original	!	!	!	!	!	!	!	!	!	!	!
*xywh-pl-gd--ee1638-8o--0190:4656,3445,3393,572	*	*	*	*	*	*	*	*	*	*	*
0E	-mor	-mor	4B\	-mor	-mor	4e\	-mor	-mor	8g\	-mor	-mor
.	.	.	.	.	.	.	.	.	8a\	.	.
*	*	*	*	*	*	*	*ij	*	*	*	*
.	.	.	2e\	Queſ-	Queſ-	2g\	Queſ-	Queſ-	8b\	.	.
.	.	.	.	.	.	.	.	.	8cc\	.	.
.	.	.	.	.	.	.	.	.	2b\	.	.
.	.	.	4d\	-ti	-ti	4fny\	-ti	-ti	.	.	.
!	!	!	!LO:MO:mod=*null:null	!	!	!	!	!	!	!	!
*	*	*	*custos:c	*	*	*	*	*	*	*	*
!	!	!	!LO:LB:g=original	!	!	!	!	!	!	!	!
=38-	=38-	=38-	=38-	=38-	=38-	=38-	=38-	=38-	=38-	=38-	=38-
*	*	*	*xywh-pl-gd--ee1638-8o--0342:4700,3977,3348,618	*	*	*	*	*	*	*	*
.	.	.	2c\	ſer-	ſer-	2e\	ſer-	ſer-	1r	.	.
.	.	.	4B\	-uo	-vo	4d\	-uo	-vo	.	.	.
.	.	.	4A/	d`A-	d`A-	4c/	d`A-	d`A-	.	.	.
1E	uiſ-	viſ-	4G#X/	-mor	-mor	2B/	-mor	-mor	1e	uiſ-	viſ-
.	.	.	4B\	viſ-	viſ-	.	.	.	.	.	.
*	*	*	*	*	*	*	*Xij	*	*	*	*
.	.	.	2G#X/	-ſe &	-ſe e	1e\	viſ-	viſ-	.	.	.
=39-	=39-	=39-	=39-	=39-	=39-	=39-	=39-	=39-	=39-	=39-	=39-
2C#X/	-ſe &	-ſe e	2A/	mo-	mo-	.	.	.	2a\	-ſe &	-ſe e
*	*	*	*lig	*	*	*	*	*	*	*	*
2D/	mo-	mo-	1B	-ri-	-rí-	1d	-ſe &	-ſe e	2f/	mo-	mo-
0E	-ri-	-rí-	.	.	.	.	.	.	0e	-ri-	-rí-
.	.	.	1A\	.	.	2c/	mo-	mo-	.	.	.
!	!	!	!	!	!	!LO:MO:mod=*null:null	!	!	!	!	!
*	*	*	*	*	*	*custos:B	*	*	*	*	*
!	!	!	!	!	!	!LO:LB:g=original	!	!	!	!	!
=40-	=40-	=40-	=40-	=40-	=40-	=40-	=40-	=40-	=40-	=40-	=40-
*	*	*	*	*	*	*xywh-pl-gd--ee1638-8o--0494:4555,3850,3456,726	*	*	*	*	*
.	.	.	.	.	.	1B	-ri-	-rí-	.	.	.
*	*	*	*Xlig	*	*	*	*	*	*	*	*
.	.	.	2G#X/	.	.	.	.	.	.	.	.
0AA	-o	-o,	1A	-o	-o,	4A/	-o	-o.	4e/	-o	-o.
.	.	.	.	.	.	2a\	Queſ-	Queſ-	2cc\	Queſ-	Queſ-
.	.	.	.	.	.	4g\	-ti	-ti	4b\	-ti	-ti
=41-	=41-	=41-	=41-	=41-	=41-	=41-	=41-	=41-	=41-	=41-	=41-
.	.	.	1r	.	.	2f\	ſer-	ſer-	2a\	ſer-	ſer-
.	.	.	.	.	.	4e\	-uo	-vo	4g/	-uo	-vo-
.	.	.	.	.	.	4d\	d`a-	d`a-	4f/	d`a-	d`a-
1AA	viſ-	viſ-	2r	.	.	4c#X/	-mor	-mor	2e/	-mor	-mor
.	.	.	.	.	.	4e\	uiſ-	viſ-	.	.	.
.	.	.	2E/	uiſ-	viſ-	2c#X/	ſe &	ſe e	1a\	viſ-	viſ-
=42-	=42-	=42-	=42-	=42-	=42-	=42-	=42-	=42-	=42-	=42-	=42-
2FF#X/	-ſe &	-ſe e	2A/	ſe &	ſe e	2d\	mo-	mo-	.	.	.
*	*	*	*	*	*	*lig	*	*	*	*	*
2GG/	mo-	mo-	2B\	mo-	mo-	1e	-ri-	-rí-	1g	-ſe &	-ſe e
0AA	-ri-	-rí-	4c\	-ri-	-rí-	.	.	.	.	.	.
.	.	.	4B\	.	.	.	.	.	.	.	.
.	.	.	4A/	.	.	1d\	.	.	2f/	mo-	mo-
.	.	.	4Gny/	.	.	.	.	.	.	.	.
=43-	=43-	=43-	=43-	=43-	=43-	=43-	=43-	=43-	=43-	=43-	=43-
.	.	.	1A	.	.	.	.	.	1e	-ri-	-rí-
*	*	*	*	*	*	*Xlig	*	*	*	*	*
.	.	.	.	.	.	2c#X/	.	.	.	.	.
1Dl\	-o.	-o.	1Al\	-o.	-o.	1dl\	-o.	-o.	1f#l/	-o.	-o.
==	==	==	==	==	==	==	==	==	==	==	==
*-	*-	*-	*-	*-	*-	*-	*-	*-	*-	*-	*-
!!!system-decoration: [(s1,s2,s3,s4)]
!!!RDF**kern: l = terminal long
!!!ENC: Filip Voros
!!!END: 2022-06-27
!!!ENC: Jan Barakat
!!!END: 2022-07-12
!!!YEC: Copyright 2022 Narodowy Instytut Fryderyka Chopina (https://polishscores.org)
!!!YEM: License CC-BY-4.0 (https://creativecommons.org/licenses/by/4.0)
!!!IIIF: https://repozytorium.nifc.pl/islandora/object/pl-gd%3A57883/datastream/IIIF/view
!!!ENC-IIIF: Zuzanna Daniec
!!!END-IIIF: 2022-09-10
!!!ENC-modern: Krzysztof Stępień
!!!END-modern: 2022-11-08
!!!filter-modern: shed -e "s/:t=P:/:T=P:/L"
!!!filter-modern: shed -e "s/-//B"
!!!filter-modern: shed -e "s/^(\d+[\/\\]right)/$1yy/I; s/^(\d+[\/\\]left)/$1yy/I"
!!!filter-modern: shed -e "s/yy//"
!!!filter-modern: shed -k -e "s/\(y(?!y)/(/"
!!!filter-modern: shed -k -e "s/([\(\)\[\]])[><]/$1/g"
!!!filter-modern: shed -k -e “s/([()[]_])[><]/$1/g”
!!!filter-modern: tie -s
!!!filter-modern: shed -e "s/^(X?)rep$/$1REP/I"
!!!filter-modern: shed -k -e "s/^(X?)tuplet/$1TUPLET/I"
!!!filter-modern: shed -e "s/LO:DY:(a|b|rj)/LO:dy:$1/L"
!!!filter-modern: shed -e "s/LO:HP:(a|b)/LO:hp:$1/L"
!!!filter-modern: shed -k -e "s/r[a-gA-G]+/r/D"
!!!filter-modern: shed -k -e "s/([^a-gA-Gn#-])[<>]/$1/g"
!!!filter-modern: sic -sq
!!!filter-modern: autostem -r
!!!filter-modern: modori -m
!!!filter-modern: humtr -p
